X: 272
M: 2/4
L: 1/16
K: G
(Bc) |\
d2Bc d2d2 | (d^c)(de) d2ge |\
(d2c2)(c2B2) | TA>GAB A2(3(gfe) |\
d2c>d c2B2 | TA>GAB A2GA |\
|: B2 |\
d2Bc d2g2 | d2cB c2AB |\
c2AB c2a2 | c2TB>A B2d2 |\
e>dg>c B2TA2 |HG6 :|

